!!!OTL: 228. Der lustige Springer (Reigen mit Wahl).
!!!ARE: Europa, Mitteleuropa, Deutschland, Ostpreussen
!!!SCT: K2228
!!!TXL: @@DE
!!!YEM: Copyright 1995, estate of Helmut Schaffrath.
**kern	**text
*clefG2	*
*M2/4	*
*k[f#c#]	*
*D:	*
{8a	Muß
=1	=1
4a	wan-
8f#	-dern,
8a	muß
=2	=2
4a	wan-
8f#}	-dern,
{8a	wohl
=3	=3
8dd	hin
8cc#	auf
8b	die-
8a	-ſen
=4	=4
8a	grü-
8g	-nen
4f#}	Platʒ,
=5	=5
!LO:TX:a:t=(Mehr gesprochen.)	!
{8d	Kommt
8d	ein
8d	luſ-
16d	-ti-
16d	-ger
=6	=6
8d	Sprin-
16d	-ger
16d	her-
4d}	-ein,
=7	=7
{8d	ſchüt-
8d	-telt
8d	mit
8d	dem
=8	=8
4d	Kopf,
4r}	.
=9	=9
{8d	rüt-
8d	-telt
8d	mit
8d	dem
=10	=10
4d	Rock,
4r}	.
=11	=11
{8d	ſtampft
8d	.
8d	mit
8d	dem
=12	=12
4d	Fuß.
4r}	.
=13	=13
{8d	Kommt,
8f#	wir
8a	wol-
8a	-len
=14	=14
8dd	tan-
8b	-ʒen
4a	gehn,
=15	=15
8dd	tan-
8b	-ʒen
8a}	gehn,
{8a	die
=16	=16
8g	andern
8g	.
8f#	müſ-
8f#	-ſen
=17	=17
8e	ſtil-
8e	-le
8d}	ſtehn.
==	==
!!!AGN: Kinder - Lied, Reigen, Tanz - Spiel, Brautwerbung
!!!ONB: ESAC (Essen Associative Code) Database: KINDER
!!!AMT: simple duple
!!!AIN: vox
!!!EED: Helmut Schaffrath
!!!EEV: 1.0
!!Aus Ostpreussen und Berlin: Fr. Zimmer Nr. 16.
!!!GTL: Zweites Buch. Kinderspiel: 2. Reigen und Tanzspiele. / D. Ringelreigen mit Wahl (Brautwerbung).
!!@@COMMENT:"Die Kinder ſtehen im Kreiſe. Eins geht außerhalb desſelben herum und ſpringt bei den Worten: "Kommt ein luſtiger Springer" rc. in den Kreis hinein und macht dann die aus den Worten 
!!hervorgehenden Bewegungen. Beim Schlußgeſang: "Kommt, wir wollen tanʒen" rc. wählt ſich der Springer ein Kind und tanʒt mit dieſem im Kreiſe herum, während der Kreis ſtill ſteht. 
!!Jm neuen Spiel tritt das ʒum Tanʒ aufgeforderte Mädchen in die Mitte des Kreiſes. [...]"
!!@@END:
!!!URL-scan: https://archive.org/details/DeutschesKinderliedUndKinderspiel/page/490/mode/1up
!!!ENC: Anna Maria Matuszewska
!!!EEV: 2024/04/09
*-	*-
